X: 4450
T: Bonnie Kate
R: reel
M: 4/4
K: Gmajor
|:g3/2f/gf gddB|cedc BGGA|
BGGB cAAc|1 BdcB Adef:|2 BdcB A4||
|:BGGB cAdB|ecce fddf|
g3/2a/ge dfgd|cedc BGG2:|
"variation"
|:g3/2f/gf gddB|c/d/e dc BG GG/A/|
BG GA/B/ cA AB/c/|1 B/c/d cB Adef:|2 B/c/d cB A4||
|:BG GA/B/ cAdB|ec cd/e/ fd de/f/|
g3/2a/ge d/e/f gd|c/d/e dc BGG2:|

